icons/assets/dark/image.svg

<svg width="48" height="48" viewBox="0 0 48 48" fill="none" xmlns="http://www.w3.org/2000/svg">
<path fill-rule="evenodd" clip-rule="evenodd" d="M8 6.25C7.0335 6.25 6.25 7.0335 6.25 8V40C6.25 40.9665 7.0335 41.75 8 41.75H40C40.9665 41.75 41.75 40.9665 41.75 40V32.59V8C41.75 7.0335 40.9665 6.25 40 6.25H8ZM9.75 35.7751V9.75H38.25V28.3652L28.9424 19.0576C28.6142 18.7294 28.1691 18.545 27.705 18.545C27.2408 18.545 26.7957 18.7294 26.4675 19.0576L9.75 35.7751ZM27.705 22.7699L38.25 33.3149V38.25H12.2249L27.705 22.7699ZM17 20C18.6569 20 20 18.6569 20 17C20 15.3431 18.6569 14 17 14C15.3431 14 14 15.3431 14 17C14 18.6569 15.3431 20 17 20Z" fill="#62646A"/>
</svg>

<svg width="48" height="48" fill="none" xmlns="http://www.w3.org/2000/svg"><path fill-rule="evenodd" clip-rule="evenodd" d="M8 6.25A1.75 1.75 0 006.25 8v32c0 .967.784 1.75 1.75 1.75h32A1.75 1.75 0 0041.75 40V8A1.75 1.75 0 0040 6.25H8zm1.75 29.525V9.75h28.5v18.615l-9.308-9.307a1.75 1.75 0 00-2.474 0L9.75 35.775zM27.705 22.77L38.25 33.315v4.935H12.225l15.48-15.48zM17 20a3 3 0 100-6 3 3 0 000 6z" fill="#62646A"/></svg>
